X: 39641
T: Temple In The Glen, The
R: reel
M: 4/4
K: Gmajor
|:DG~G2 DGBG|G2Bd egga|b2ab gedB|ABBA BAGE|
DG~G2 DGBG|G2Bd egga|(3bag af gedB|1 AGBA ~G3E:|2 AGBA G2D2||
|:GABe dB~B2|GA (3BAG AGED|G2Bd eg~g2|abgb aged|
GABe dB~B2|~g3d edBA|G2Bd g2fg|1 ecAF G2D2:|2 ecAF ~G3E||

